src/16/actions/folder-sync.svg

<svg xmlns="http://www.w3.org/2000/svg" viewBox="0 0 16 16">
  <defs id="defs3051">
    <style type="text/css" id="current-color-scheme">
      .ColorScheme-Text {
        color:#5d656b;
      }
      </style>
  </defs>
 <path style="fill:currentColor;fill-opacity:1;stroke:none" 
     d="M 2 2 L 2 3 L 2 6 L 2 7 L 2 13 L 2 14 L 9 14 L 9 13 L 3 13 L 3 7 L 13 7 L 13 9 L 14 9 L 14 6 L 14 5 L 14 4 L 9.0078125 4 L 7.0078125 2 L 7 2.0078125 L 7 2 L 3 2 L 2 2 z M 3 3 L 6.5917969 3 L 7.59375 4 L 7 4 L 7 4.0078125 L 6.9921875 4 L 4.9921875 6 L 3 6 L 3 3 z M 11.5 9 A 2.4999997 2.5000003 0 0 0 9 11.5 A 2.4999997 2.5000003 0 0 0 9.4160156 12.876953 L 10.148438 12.144531 A 1.5 1.5 0 0 1 10 11.5 A 1.5 1.5 0 0 1 11.5 10 A 1.5 1.5 0 0 1 12.144531 10.148438 L 12.876953 9.4160156 A 2.4999997 2.5000003 0 0 0 11.5 9 z M 13.583984 10.123047 L 12.851562 10.855469 A 1.5 1.5 0 0 1 13 11.5 A 1.5 1.5 0 0 1 11.5 13 A 1.5 1.5 0 0 1 10.855469 12.851562 L 10.123047 13.583984 A 2.4999997 2.5000003 0 0 0 11.5 14 A 2.4999997 2.5000003 0 0 0 14 11.5 A 2.4999997 2.5000003 0 0 0 13.583984 10.123047 z "
     class="ColorScheme-Text"
     />
</svg>

<svg xmlns="http://www.w3.org/2000/svg" viewBox="0 0 16 16"><path d="M2 2v12h7v-1H3V7h10v2h1V4H9.008l-2-2L7 2.008V2H2zm1 1h3.592l1.002 1H7v.008L6.992 4l-2 2H3V3zm8.5 6A2.5 2.5 0 0 0 9 11.5a2.5 2.5 0 0 0 .416 1.377l.732-.732A1.5 1.5 0 0 1 10 11.5a1.5 1.5 0 0 1 1.5-1.5 1.5 1.5 0 0 1 .645.148l.732-.732A2.5 2.5 0 0 0 11.5 9zm2.084 1.123l-.732.732A1.5 1.5 0 0 1 13 11.5a1.5 1.5 0 0 1-1.5 1.5 1.5 1.5 0 0 1-.645-.148l-.732.732A2.5 2.5 0 0 0 11.5 14a2.5 2.5 0 0 0 2.5-2.5 2.5 2.5 0 0 0-.416-1.377z" fill="currentColor" color="#5d656b"/></svg>
